storage/app/icons/phosphoricons/duotone/text-h-one-duotone.svg

<svg xmlns="http://www.w3.org/2000/svg" fill="currentColor" viewBox="0 0 256 256"><path d="M224 72v136H56a16 16 0 0 1-16-16V56h168a16 16 0 0 1 16 16" opacity=".2"/><path d="M152 56v120a8 8 0 0 1-16 0v-52H48v52a8 8 0 0 1-16 0V56a8 8 0 0 1 16 0v52h88V56a8 8 0 0 1 16 0m75.77 49a8 8 0 0 0-8.21.39l-24 16a8 8 0 1 0 8.88 13.32L216 127v81a8 8 0 0 0 16 0v-96a8 8 0 0 0-4.23-7"/></svg>

<svg xmlns="http://www.w3.org/2000/svg" viewBox="0 0 256 256" fill="currentColor"><path d="M224,72V208H56a16,16,0,0,1-16-16V56H208A16,16,0,0,1,224,72Z" opacity="0.2"/><path d="M152,56V176a8,8,0,0,1-16,0V124H48v52a8,8,0,0,1-16,0V56a8,8,0,0,1,16,0v52h88V56a8,8,0,0,1,16,0Zm75.77,49a8,8,0,0,0-8.21.39l-24,16a8,8,0,1,0,8.88,13.32L216,127V208a8,8,0,0,0,16,0V112A8,8,0,0,0,227.77,105Z"/></svg>
